www/assets/icons/moving.svg

<svg xmlns="http://www.w3.org/2000/svg" width="24" height="24" viewBox="0 0 24 24" fill='currentColor'><path d="M19.71 9.71 22 12V6h-6l2.29 2.29-4.17 4.17a.996.996 0 0 1-1.41 0l-1.17-1.17a3 3 0 0 0-4.24 0L2 16.59 3.41 18l5.29-5.29a.996.996 0 0 1 1.41 0l1.17 1.17a3 3 0 0 0 4.24 0z"/></svg>

<svg width="24" height="24" viewBox="0 0 24 24" xmlns="http://www.w3.org/2000/svg" fill='currentColor'><path d="M19.71 9.71L22 12V6H16L18.29 8.29L14.12 12.46C13.73 12.85 13.1 12.85 12.71 12.46L11.54 11.29C10.37 10.12 8.47 10.12 7.3 11.29L2 16.59L3.41 18L8.7 12.71C9.09 12.32 9.72 12.32 10.11 12.71L11.28 13.88C12.45 15.05 14.35 15.05 15.52 13.88L19.71 9.71Z"/></svg>
